src/svgs/book.svg

<svg viewBox="0 0 22 17" fill="none" xmlns="http://www.w3.org/2000/svg">
<path d="M20 0.5C18.89 0.15 17.67 0 16.5 0C14.55 0 12.45 0.4 11 1.5C9.55 0.4 7.45 0 5.5 0C3.55 0 1.45 0.4 0 1.5V16.15C0 16.4 0.25 16.65 0.5 16.65C0.6 16.65 0.65 16.6 0.75 16.6C2.1 15.95 4.05 15.5 5.5 15.5C7.45 15.5 9.55 15.9 11 17C12.35 16.15 14.8 15.5 16.5 15.5C18.15 15.5 19.85 15.8 21.25 16.55C21.35 16.6 21.4 16.6 21.5 16.6C21.75 16.6 22 16.35 22 16.1V1.5C21.4 1.05 20.75 0.75 20 0.5ZM20 14C18.9 13.65 17.7 13.5 16.5 13.5C14.8 13.5 12.35 14.15 11 15V3.5C12.35 2.65 14.8 2 16.5 2C17.7 2 18.9 2.15 20 2.5V14Z" fill="#A6ABB9"/>
<path d="M16.5 6C17.38 6 18.23 6.09 19 6.26V4.74C18.21 4.59 17.36 4.5 16.5 4.5C14.8 4.5 13.26 4.79 12 5.33V6.99C13.13 6.35 14.7 6 16.5 6Z" fill="#A6ABB9"/>
<path d="M12 7.99016V9.65016C13.13 9.01016 14.7 8.66016 16.5 8.66016C17.38 8.66016 18.23 8.75016 19 8.92016V7.40016C18.21 7.25016 17.36 7.16016 16.5 7.16016C14.8 7.16016 13.26 7.46016 12 7.99016Z" fill="#A6ABB9"/>
<path d="M16.5 9.83008C14.8 9.83008 13.26 10.1201 12 10.6601V12.3201C13.13 11.6801 14.7 11.3301 16.5 11.3301C17.38 11.3301 18.23 11.4201 19 11.5901V10.0701C18.21 9.91008 17.36 9.83008 16.5 9.83008Z" fill="#A6ABB9"/>
</svg>

<svg xmlns="http://www.w3.org/2000/svg" fill="none" viewBox="0 0 22 17"><path fill="#A6ABB9" d="M20 .5C18.89.15 17.67 0 16.5 0c-1.95 0-4.05.4-5.5 1.5C9.55.4 7.45 0 5.5 0 3.55 0 1.45.4 0 1.5v14.65c0 .25.25.5.5.5.1 0 .15-.05.25-.05 1.35-.65 3.3-1.1 4.75-1.1 1.95 0 4.05.4 5.5 1.5 1.35-.85 3.8-1.5 5.5-1.5 1.65 0 3.35.3 4.75 1.05.1.05.15.05.25.05.25 0 .5-.25.5-.5V1.5c-.6-.45-1.25-.75-2-1ZM20 14c-1.1-.35-2.3-.5-3.5-.5-1.7 0-4.15.65-5.5 1.5V3.5c1.35-.85 3.8-1.5 5.5-1.5 1.2 0 2.4.15 3.5.5V14Z"/><path fill="#A6ABB9" d="M16.5 6c.88 0 1.73.09 2.5.26V4.74c-.79-.15-1.64-.24-2.5-.24-1.7 0-3.24.29-4.5.83v1.66c1.13-.64 2.7-.99 4.5-.99ZM12 7.99v1.66c1.13-.64 2.7-.99 4.5-.99.88 0 1.73.09 2.5.26V7.4c-.79-.15-1.64-.24-2.5-.24-1.7 0-3.24.3-4.5.83ZM16.5 9.83c-1.7 0-3.24.29-4.5.83v1.66c1.13-.64 2.7-.99 4.5-.99.88 0 1.73.09 2.5.26v-1.52c-.79-.16-1.64-.24-2.5-.24Z"/></svg>
